X: 1
T: Bugle Horn
C: Scots Guards v.1
Z: Terry Traub 1999-5-4
R: Jig
M: 6/8
L: 1/8
K: D
A \
| "D"d>fA d2A | d>fA d2f | a2f "Bm"d2f | "Em"e2e "A7"e2A \
| "D"d>fA d2A | d>fA d2f | "A"a2f e2e | "D"f>dd d2 :|
e \
| "D"f3 "G"g>fg | "D"a3 f2a | a>gf "Bm"f>ed | "E7"f2e "A"e2e \
| "D"f3 "G"g>fg | "D"a3 f2a | "G"a>gf "A"e2e | "D"f>dd d2 |]
e \
| "D"f3 "G"g>fg | "D"a3 f2a | a>gf "Bm"f>ed | "E7"f2e "A"e2A \
| "D"d>fA d2A | d>fA d2f | "G"a2f "A"e2e | "D"f>dd d2 |]
